X:1
T:C major Timothy Swan, 1801
T:Nahum Tate and Nicholas Brady, 1698  (Psalm 150)
T:Let the shrill trumpet's warlike voice
T:Anthem Transcribed from Swan's New England Harmony, 1801.
%%score [ 1 2 3 4 ]
L:1/8
Q:1/4=150
M:4/4
K:C
V:1 treble nm="Tr." snm="Tr."
V:2 treble nm="C." snm="C."
V:3 treble-8 nm="T." snm="T."
V:4 bass nm="B." snm="B."
V:1
"^Let the shrill trumpet's warlike voice,                     trum        –        pet's  trumpet's trumpet's  war    –     like     voice,          Let    the shrill trumpet's" c4 G2 c2 | %1
 e2 G2 G2 G2 | G8 | (efed c2) G2 | e2 c2 c2 G2 | d6 d2 | e6 e2 | g2 g2 d2 d2 | (e4 d4) | d4 d4- | %10
 d4 z4 | e4 c2 G2 | (c3 d e2) G2 | c4 B4 | c4 z2 c2 | (c3 d e2) g2 | %16
 G4 z2"^his praise  re  –  sound,    re –" G2 | A4 B4 | c4 z2 G2 | %19
"^– sound,                          his   praise ___  re – sound.         Praise him with  harp's _______" G4 z4 | %20
 z4 z2 c2 | (A2 f2 e2) d2 | c8 | c4 G2 G2 | (cdcd e4) | z8 | %26
"^Praise him with harp's _________" d4 d2 d2 | (e2 dc d2 G2 | %28
"^_________   me – lo     –   dious  noise,                                                                                                                             And  gentle  psaltery's  sil – ver" e4 f2) e2 | %29
 (d2 c2 d2) e2 | G8 | z8 | z8 | z8 | z8 | c4 c2 c2 | [Bg]2 d2 dc BA | %37
"^sound.       Let      vir   –  gin    troops      soft     tim – brels   bring, ___    And some with graceful motion dance;  ________     And      some" G8 | %38
 z4 c4 | dc BA (G4 | c4) d4 | cB AG (TA4 | G8) | c4 G2 G2 | c2 c2 d2 e2 | (dcBA G4) | f4 (e2 c2) | %47
"^with _____   grace          –           ful  motion  dance;" (B2 d2) (cdcd | e2) c2 G2 G2 | c8 | %50
 z4 c4 | c2 c2 e2 fe | d2 g2 g2 G2 | c2 d2 c2 d2 | e2 c2 c2 z2 | z8 | z8 | z8 | z8 | z8 | z8 | z8 | %62
 z8 | z8 | z4"^With" c4 | %65
"^or       –      gans       joined,                 his                 praise   ad   –    vance." (e2 c2 g2) e2 | %66
 c8 | c4 d2 d2 | %68
 e4 z2"^Let    all _______     that   vi           –         tal         breath _____   en –" G2 | %69
 (GABc d2) d2 | e6 G2 | (cdcd e2) c2 | %72
"^– joy, ____________                      breath      en         –        joy,                     The     breath ____   he    does _________________                   to" A8- | %73
 A8 | G4 (f2 e2) | d8 | z4 G4 | (A2 c2 A2) G2 | G8- | G6 d2 | %80
"^them ______    af  –  ford,  af–ford,   In       just     re – turns  of       praise        em    –    ploy,                 of       praise ____   em – ploy:            Let" (edef e2) g2 | %81
 f3 e dc d2 | G>A Bc d2 d2 | e4 d4 | c6 e2 | (f3 e d2) d2 | e4 z2 e2 | %87
"^eve      –      ry             crea    –     ture   praise    the         Lord.      Hal       –      le – lu – jah,             Hal         –      le – lu – jah,             Praise the Lord." c6 d2 | %88
 G6 e2 | c4 g4 | e8 | (c3 d e2) e2 | e2 c2 z4 | (G3 A B2) d2 | e2 c2 z4 | e4 d4 | c8 | %97
"^A–men,  A–men,                                       A       –    men,          A               –            men." e2 d2 e2 d2 | %98
 z8 | G4 G4 | c8 | c8 |] %102
V:2
 z8 | z8 | %2
 z4"^Let    the     shrill ___________________             trumpet's warlike voice,     war–like    voice," E3 F | %3
 G8- | G8 | G2 G2 G2 G2 | c4 G2 G2 | G8 | %8
"^war    –     like  voice                 Make rocks and hills           his   praise  re –sound,       his   praise          re   –  sound,    re – sound,   his  praise  re –" (E4 F4) | %9
 A4 G4- | G4 z4 | G4 c2 c2 | c6 G2 | A4 G4 | G4 z2 G2 | G6 G2 | G4 z2 G2 | c4 z2 G2 | c4 B4 | %19
"^– sound,                          his   praise    re    –    sound.         Praise  him  with   harp's _______    Praise him with harp's,               Praise        him with" c4 z4 | %20
 z4 z2 G2 | A4 G4 | G8 | c4 c2 c2 | (G4 E4) | A4 A2 A2 | A8 | G4 G2 G2 | %28
"^harp's ____  me – lo     –   dious  noise,             And    gen      –     tle  psaltery's  sil-ver   sound, _____________                                  sil  –  ver" (c2 B2 A2) c2 | %29
 (F2 E2 A2) G2 | G8 | z4 G4 | (c4 B2) G2 | E2 G2 c2 E2 | G8- | G8 | z4 G2 G2 | %37
"^sound.       Let      vir   –  gin    troops      soft     tim – brels   bring, ___    And some with grace    –    ful    mo          –         tion     dance;       And" G8 | %38
 z4 c4 | GA GF (E4 | A4) G4 | E2 E2 (F4 | E8) | G4 G2 G2 | A6 c2 | (B2 G2 c2) c2 | (A4 G2) c2 | %47
"^some   with   grace – ful       mo   –   tion       dance;                Let      instruments of various strings,   With organs joined, his praise advance." BA GF E2 G2 | %48
 G4 G4 | E8 | z4 G4 | E2 G2 c2 BA | G2 G2 G2 G2 | c2 B2 A2 F2 | E2 G2 c2 z2 | z8 | z8 | z8 | z8 | %59
 z8 | z8 | z8 | z4"^With   or       –      gans  joined," C4 | (E2 C2 G2) E2 | c8 | %65
"^his    praise  ad   –  vance.          With  or              –             gans      joined, ________                                 his        praise  ad – vance." G4 ED EF | %66
 G4 z2 E2 | (EDEF G2) G2 | G8- | G4 z4 | c4 GA GF | E8 | %72
"^Let         all    that     vi       –      tal     breath      en        –          joy,                   The   breath he does to     them ________   af  –  ford,                  to" E4 F3 G | %73
 A6 A2 | (G2 E2) (F2 A2) | G8 | z4 G4 | c2 c2 c2 c2 | (B3 A G2) G2 | G4 z2 G2 | %80
"^them                                 af                –               ford,                      In        just  re– turns  of  praise employ,  of   praise  em – ploy: _____              Let" G8 | %81
 A8 | G6 B2 | c2 c2 B2 G2 | c3 G E2 G2 | A2 A2 (A4 | G4) z2 G2 | %87
"^eve      –         –         –      ry  creature   praise    the        Lord.       Hal       –      le – lu – jah,              Hal         –      le – lu – jah,           Praise the Lord." (A3 B c2 BA | %88
 G2) G2 G2 c2 | A4 (B2 G2) | [Gc]8 | G6 G2 | A2 A2 z4 | G6 G2 | E2 G2 z4 | G4 B4 | c8 | z8 | %98
"^A–men,  A–men,                                        A               –            men." G2 G2 G2 G2 | %99
 z8 | A8 | G8 |] %102
V:3
"^Let    the        shrill ________________             trumpet's    trumpet's   trum  –   pet's  trumpet's trumpet's war     –     like       voice," c4 (e2 f2) | %1
 g8- | g8 | g2 g2 e2 e2 | (g4 e2) c2 | d2 G2 d2 G2 | c6 c2 | d8 | (c4 B4) | A4 G4- | G4 z4 | %11
 c4 e2 e2 | e6 g2 | c4 d4 | e4 z2 g2 | e6 c2 |{e} d4 z2"^his  praise  re  – sound," e2 | c4 G4 | %18
 G4 z4 | %19
 z4 z2"^re –sound,    his   praise    re    –    sound.          Praise  him  with   harp's _______    Praise him with harp's,             Praise        him with" G2 | %20
 G4 z2 e2 | c4 B4 | c8 | e4 e2 e2 | (e4 c4) | f4 f2 f2 | (f4 d4) | g4 g2 g2 | %28
"^harp's ____ me-lo-dious noise, _____             And    gen      –     tle     psal      –    tery's  sil           –         ver     sound,               sil     –   ver" (g2 fe a2) g2 | %29
 f2 e2 (e4 | d8) | z4 c4 | (c2 e2 G2) G2 | G6 G2 | (c2 Bc d2) cd | e8 | (G2 B2) (B2 d2) | d8 | z8 | %39
 z8 | z8 | z8 | z8 | %43
"^And some with grace   –   ful    mo          –         tion    dance;        And" G4 G2 c2 | %44
 A6 G2 | (G2 d2 e2) c2 | (f2 d2 g2) c2 | %47
"^some   with   grace       –      ful        mo–tion  dance;" d2 G2 G4 | e4 e2 G2 | G8 | z4 c4 | %51
 e2 e2 e2 dc | d2 d2 d2 cB | c2 G2 c2 d2 | e2 e2 e2 z2 | z8 | z8 | z8 | z8 | z8 | %60
 z4"^With   or       –      gans  joined, _______       With          or     –    gans" c4 | %61
 (e2 c2 g2) e2 | c8- | c4 d4 | (e2 c2 g2) e2 | %65
"^joined,         his        praise         ad–vance.                          With         or   –    gans   joined,  ____________                   his       praise  ad – vance. ____" G6 c2 | %66
 e6 g2 | c4 z2 d2 | G6 G2 | G8- | G6 c2 | g2 e2 c4- | %72
"^____      Let             all  that  vi    –    tal            breath   en  –   joy,                  The     breath _____  he     does _________  to      them                af –" c4 A4 | %73
 A2 A2 f4 | (e2 g2) dc BA | G8 | z4 c4 | (e3 d c2) G2 | (dcde d2) G2 | G6 G2 | %80
"^– ford, ______   af   –   ford,                In         just          returns  of       praise               em – ploy,        of                praise ____  em – ploy:            Let" (c3 d e2) c2 | %81
 A6 f2 | d3 c B2 d2 | G6 G2 | G4 c4 | (A3 G A2) d2 | c4 z2 e2 | %87
"^eve         –      ry          crea     –     ture   praise __   the    Lord.     Hal       –      le – lu – jah,             Hal         –       le – lu – jah,           Praise the Lord." (e2 c2 f2) d2 | %88
 (c2 d2 e2) g2 | (a2 f2 e2) d2 | c8 | e6 c2 | A2 c2 z4 | d6 B2 | G2 G2 z4 | c4 d4 | e8 | %97
"^A         –         –        men,                         A–men,  A–men,      A               –            men." (c2 A2 c2 A2) | %98
 G8 | e2 e2 e2 e2 | (c2 A2 c2 A2) | G8 |] %102
V:4
 z8 | %1
"^Trumpet's trumpet's trum  –  pet's       trumpet's   war– like     war      –     like    voice,                   trumpet's trumpet's   war     –      like" C3 G, C2 G,2 | %2
 (G,4 E,2) C,2 | E,2 C,2 C2 C2 | C6 C2 | G,8 | C,3 E, C,3 E, | G,6 G,2 | (C4 D4) | D,4 [G,,G,]4- | %10
 [G,,G,]4 z4 | C,4 C2 C2 | (C3 B, A,2) G,2 | (A,2 F,2) G,4 | C,4 z2 C,2 | (C3 B, A,2) C2 | %16
 G,4 z2"^his praise  re  –  sound,    re –" C2 | F,4 G,4 | C,4 z2 G,2 | %19
"^– sound,   re–sound,     his   praise    re     –   sound.         Praise  him  with   harp's _______     Praise him with harp's,              Praise       him with" C4 z2 C2 | %20
 C,4 z2 C,2 | F,4 G,4 | C,8 | C4 C2 C2 | C8 | D4 D2 D2 | D8 | C4 G,2 E,2 | %28
"^harp's ____  me – lo    –   dious   noise,             And    gen      –     tle     psal      –    tery's   sil         –        ver     sound,  sil–ver  sound, ___________" (E,4 D,2) C,2 | %29
 (D,2 E,2) (D,2 C,2) | G,8 | z4 C,4 | (C,4 E,2) G,2 | (E,3 D, C,2) C,2 | (C,2 E,2 G,2) G,2 | %35
 C4 C,2 E,2 | G,8- | G,8 | z8 | z8 | z8 | z8 | z8 | C,4 E,2 C,2 | (F,3 E, D,2) C,2 | (G,4 E,2) C2 | %46
 (D2 D,2 E,2) F,2 | %47
"^some   with   grace          –          ful   motion  dance;              Let   instruments of various strings,   With organs joined, his praise advance.   With" G,2 G,2 (CB,A,G, | %48
 C2) C,2 E,2 G,2 | C,8 | z4 C4 | C2 C2 C2 B,A, | G,2 G,2 G,2 E,2 | F,2 G,2 A,2 B,2 | C2 C2 C2 G,2 | %55
"^organs joined,     his praise advance. ___           With  or       –      gans  joined, ______     With     or–gans joined,  his praise ad  – vance.  _______" C2 C2 (C4 | %56
 D2) D,2 G,2 G,2 | (E,4 C,4) | z4 C,4 | (E,2 C,2 G,2) E,2 | C,8- | C,4 C,4 | C2 C,2 (F,4 | %63
 E,2) F,2 G,2 G,,2 | C,8- | %65
"^_____  With                or         –         –         –         –           –         –       gans joined, ___                his   praise  ad – vance.  _________                  Let" C,4 C,4 | %66
 (C3 B, A,2 C2 | A,2 C2 G,A,G,F, | E,2) C,2 G,4- | G,4 G,,4 | C,2 C,2 C,4- | C,6 C2 | %72
"^all  that  vi     –         –         –     tal    breath     en          –          joy,                  The       breath ____________________________________  he" A,2 F,2 D,4- | %73
 D,6 D,2 | E,4 F,4 | G,8 | z4 C,4 | (A,,6 C,2 | G,,6 C,2 | E,2 D,C, E,2) G,2 | %80
"^does                     to       them _____   af   –   ford                 In               just   returns   of     praise              em  –  ploy:                         Let        eve–ry" C,6 C,2 | %81
 (D,3 E, F,2) D,2 | G,4 G,,4 | C,3 C, G,,2 G,,2 | C,6 C,2 | D,8 | (E,2 F,2) G,2 E,2 | %87
"^crea      –      ture       praise ___________    the           Lord.      Hal       –       le – lu – jah,           Hal         –         le  – lu – jah,         Praise the Lord." A,6 G,2 | %88
 (C2 G,2 E,2 C,2 | F,4) G,4 | C,8 | C6 C,2 | A,2 A,2 z4 | G,6 G,,2 | C,2 C,2 z4 | C4 G,4 | [C,C]8 | %97
"^A–men,  A–men,    A          –         –       men,                            A               –            men.""^____________________________________________\nEdited by B. C. Johnston, 2016.\n   1.  Measures of rest eliminated after measures 24 and 92.  \n   2.  Original has the line, \"With organs joined, his praise advance\" repeated from measures 55 through 92.  Words from the last stanza (\"Let all that\n         vital breath enjoy\") replace these from measures 69 (Tr.), 72 (B.), and 73 (C., T.). \n   3.  Measure 75, \nTreble\n: slur on last two notes.\n   4.  Measure 81, \nTenor\n: slur on first three notes.\n   5.  Measure 82, \nBass\n: slur on first three notes.\n   6.  Measures 88 (Bass) and 89 (Treble): half-note and quarter-rest replaced by dotted half-note." C,2 D,2 E,2 F,2 | %98
 (G,4 G,,4) | C,8 | F,8 | C,8 |] %102

